website/docs/components/feedback-yes-no/static/feedback.svg

<svg width="40" height="40" viewBox="0 0 40 40" fill="none" xmlns="http://www.w3.org/2000/svg">
<path d="M28.455 4.36701V1.30701C28.455 1.25281 28.4406 1.19959 28.4133 1.15278C28.3859 1.10597 28.3467 1.06726 28.2995 1.04061C28.2523 1.01396 28.1988 1.00033 28.1446 1.0011C28.0904 1.00187 28.0374 1.01703 27.991 1.04501C24.4807 3.21661 20.4347 4.36697 16.307 4.36701H11.545C9.63836 4.36701 7.80981 5.12443 6.46161 6.47262C5.11341 7.82082 4.356 9.64937 4.356 11.556V28.444C4.356 30.3507 5.11341 32.1792 6.46161 33.5274C7.80981 34.8756 9.63836 35.633 11.545 35.633V38.693C11.545 38.7472 11.5594 38.8004 11.5867 38.8473C11.6141 38.8941 11.6533 38.9328 11.7005 38.9594C11.7477 38.9861 11.8012 38.9997 11.8554 38.9989C11.9096 38.9982 11.9626 38.983 12.009 38.955C15.5195 36.7831 19.5659 35.6328 23.694 35.633H28.455C29.3991 35.633 30.3339 35.4471 31.2061 35.0858C32.0783 34.7245 32.8708 34.195 33.5384 33.5274C34.206 32.8598 34.7355 32.0673 35.0968 31.1951C35.4581 30.3229 35.644 29.3881 35.644 28.444V11.556C35.644 9.64937 34.8866 7.82082 33.5384 6.47262C32.1902 5.12443 30.3616 4.36701 28.455 4.36701Z" fill="#6EDBFF"/>
<path d="M20.226 19.536L8.214 3.379L6.486 5.679L6.6 8.16L17.218 28.186L16.756 23.741L19.212 23.261L20.226 19.536Z" fill="#6EDBFF"/>
<path d="M17.218 28.186L6.6 8.16002L6.486 5.67901L8.234 3.35202L11.394 2.40302L13.721 3.69102L29.348 18.954L25.084 17.52L23.826 19.697L20.248 19.457L19.212 23.261L16.756 23.741L17.218 28.186Z" fill="white"/>
<path d="M33.372 37.069L26.707 33.583L26.679 33.574C26.3037 33.3963 25.9812 33.1241 25.743 32.784C25.4976 32.4 25.3538 31.9599 25.3253 31.5051C25.2968 31.0502 25.3845 30.5956 25.58 30.184C25.8786 29.4948 26.3604 28.9006 26.973 28.466C26.998 28.4447 27.0244 28.425 27.052 28.407C27.6434 27.9906 28.3323 27.734 29.052 27.662C29.533 27.5929 30.0237 27.6539 30.4731 27.8385C30.9226 28.0232 31.3145 28.3248 31.608 28.712C31.8067 29.002 31.9382 29.3327 31.993 29.68L32.011 29.822L33.372 37.069Z" fill="black"/>
<path d="M26.679 33.574L19.569 30.321C18.7252 29.9424 17.9996 29.3425 17.469 28.585C17.379 28.455 17.298 28.322 17.221 28.185L16.782 23.961L16.759 23.74L16.85 23.722L17.125 23.667L19.215 23.26L20.251 19.46L20.471 19.474L23.829 19.7L25.087 17.523H25.093L26.819 18.106L29.345 18.954C29.6312 19.2099 29.886 19.4989 30.104 19.815C30.5273 20.4264 30.8094 21.1242 30.93 21.858L30.983 22.258L31.989 29.677C31.9342 29.3297 31.8027 28.999 31.604 28.709C31.3801 28.4013 31.0906 28.1471 30.7565 27.9648C30.4224 27.7826 30.052 27.6767 29.672 27.655C29.4643 27.638 29.2557 27.638 29.048 27.655C28.3283 27.727 27.6394 27.9836 27.048 28.4C27.0204 28.418 26.9941 28.4377 26.969 28.459C26.3564 28.8936 25.8746 29.4878 25.576 30.177C25.3805 30.5886 25.2928 31.0433 25.3213 31.4981C25.3499 31.9529 25.4936 32.393 25.739 32.777C25.9774 33.1202 26.3015 33.395 26.679 33.574Z" fill="#6EDBFF"/>
<path d="M31.992 29.681C31.9372 29.3337 31.8057 29.0031 31.607 28.713C31.4281 28.3636 31.1481 28.0762 30.8035 27.8881C30.4589 27.7001 30.0656 27.6203 29.675 27.659L25.944 17.808C25.944 17.808 27.066 18.332 26.816 18.108L29.342 18.956C29.6282 19.2119 29.883 19.5009 30.101 19.817C30.5243 20.4284 30.8064 21.1262 30.927 21.86L30.98 22.26L31.992 29.681Z" fill="white"/>
<path d="M11.394 2.39999C12.339 2.88099 12.774 3.16599 13.721 3.68799" stroke="black" stroke-width="0.5" stroke-linecap="round" stroke-linejoin="round"/>
<path d="M15.891 7.36901L11.394 2.40302L8.243 3.34901L8.234 3.35202" stroke="black" stroke-width="0.5" stroke-linecap="round" stroke-linejoin="round"/>
<path d="M16.756 23.741L16.779 23.962L17.218 28.186C17.2111 28.1773 17.2057 28.1675 17.202 28.157L17.115 28L17.106 27.981L6.6 8.16" fill="white"/>
<path d="M16.756 23.741L16.779 23.962L17.218 28.186C17.2111 28.1773 17.2057 28.1675 17.202 28.157L17.115 28L17.106 27.981L6.6 8.16" stroke="black" stroke-width="0.5" stroke-linecap="round" stroke-linejoin="round"/>
<path d="M13.721 3.69101C14.249 4.20301 28.821 18.445 29.342 18.951" stroke="black" stroke-width="0.5" stroke-linecap="round" stroke-linejoin="round"/>
<path d="M6.6 8.15999C6.6 7.97399 6.587 7.80399 6.579 7.64299C6.553 6.99999 6.517 6.47899 6.486 5.67899" stroke="black" stroke-width="0.5" stroke-linecap="round" stroke-linejoin="round"/>
<path d="M30.933 21.858C30.8124 21.1242 30.5303 20.4264 30.107 19.815C29.889 19.4989 29.6342 19.2099 29.348 18.954" stroke="black" stroke-width="0.5" stroke-linecap="round" stroke-linejoin="round"/>
<path d="M17.218 28.189C17.295 28.322 17.376 28.455 17.466 28.589C17.9966 29.3465 18.7222 29.9464 19.566 30.325" stroke="black" stroke-width="0.5" stroke-linecap="round" stroke-linejoin="round"/>
<path d="M31.992 29.681L32.01 29.823L33.372 37.069L26.707 33.583L26.679 33.574C26.3037 33.3963 25.9812 33.1241 25.743 32.784C25.4976 32.4 25.3538 31.9599 25.3253 31.5051C25.2968 31.0502 25.3845 30.5956 25.58 30.184C25.8786 29.4948 26.3604 28.9006 26.973 28.466C26.998 28.4447 27.0244 28.425 27.052 28.407C27.6434 27.9906 28.3323 27.734 29.052 27.662C29.533 27.5929 30.0237 27.6539 30.4731 27.8385C30.9226 28.0232 31.3145 28.3248 31.608 28.712C31.8065 29.0024 31.9377 29.3335 31.992 29.681Z" stroke="black" stroke-width="0.5" stroke-linecap="round" stroke-linejoin="round"/>
<path d="M33.372 37.069L19.569 30.321" stroke="black" stroke-width="0.5" stroke-linecap="round" stroke-linejoin="round"/>
<path d="M33.372 37.069L30.986 22.262L30.933 21.858" stroke="black" stroke-width="0.5" stroke-linecap="round" stroke-linejoin="round"/>
<path d="M20.248 19.457L23.826 19.697L25.084 17.52" stroke="black" stroke-width="0.5" stroke-linecap="round" stroke-linejoin="round"/>
<path d="M17.218 28.189V28.186" stroke="black" stroke-width="0.5" stroke-linecap="round" stroke-linejoin="round"/>
<path d="M15.891 7.36899L25.084 17.517V17.52H25.087H25.09L29.342 18.951L29.345 18.954H29.348" stroke="black" stroke-width="0.5" stroke-linecap="round" stroke-linejoin="round"/>
<path d="M6.486 5.66901L6.49 5.66601L8.231 3.35901" stroke="black" stroke-width="0.5" stroke-linecap="round" stroke-linejoin="round"/>
<path d="M6.486 5.67901L6.483 5.67501L6.486 5.66901" stroke="black" stroke-width="0.5" stroke-linecap="round" stroke-linejoin="round"/>
<path d="M17.377 15.612L20.114 19.279L20.248 19.457" stroke="black" stroke-width="0.5" stroke-linecap="round" stroke-linejoin="round"/>
<path d="M8.231 3.35901L16.499 14.436" stroke="black" stroke-width="0.5" stroke-linecap="round" stroke-linejoin="round"/>
<path d="M31.64 28.495L33.372 37.069L29.675 27.659L31.64 28.495Z" fill="#6EDBFF"/>
<path d="M33.372 37.069L26.707 33.583L26.679 33.574C26.3037 33.3963 25.9812 33.1241 25.743 32.784C25.4976 32.4 25.3538 31.9599 25.3253 31.5051C25.2968 31.0502 25.3845 30.5956 25.58 30.184C25.8786 29.4948 26.3604 28.9006 26.973 28.466C26.998 28.4447 27.0244 28.425 27.052 28.407C27.6434 27.9906 28.3323 27.734 29.052 27.662C29.533 27.5929 30.0237 27.6539 30.4731 27.8385C30.9226 28.0232 31.3145 28.3248 31.608 28.712C31.642 28.761 31.681 28.825 31.722 28.897C32.0274 29.4358 32.233 30.0252 32.329 30.637L33.372 37.069Z" stroke="black" stroke-width="0.5" stroke-linecap="round" stroke-linejoin="round"/>
<path d="M8.545 9.28699L13.807 18.555" stroke="black" stroke-width="0.5" stroke-linecap="round" stroke-linejoin="round"/>
<path d="M6.49 5.66599L7.912 8.17199" stroke="black" stroke-width="0.5" stroke-linecap="round" stroke-linejoin="round"/>
<path d="M16.756 23.741L19.212 23.261L20.248 19.457" stroke="black" stroke-width="0.5" stroke-linecap="round" stroke-linejoin="round"/>
</svg>

<svg width="40" height="40" viewBox="0 0 40 40" fill="none" xmlns="http://www.w3.org/2000/svg">
  <path d="M28.45 4.37V1.3a.3.3 0 0 0-.46-.26 22.2 22.2 0 0 1-11.68 3.32h-4.76a7.19 7.19 0 0 0-7.2 7.19v16.88a7.19 7.19 0 0 0 7.2 7.2v3.05a.3.3 0 0 0 .46.27 22.2 22.2 0 0 1 11.68-3.33h4.76a7.19 7.19 0 0 0 7.2-7.19V11.56a7.19 7.19 0 0 0-7.2-7.2Z" fill="#6EDBFF"/>
  <path d="M20.23 19.54 8.2 3.38 6.5 5.68l.11 2.48 10.62 20.03-.46-4.45 2.45-.48 1.02-3.72Z" fill="#6EDBFF"/>
  <path d="M17.22 28.19 6.6 8.16l-.11-2.48 1.74-2.33 3.16-.95 2.33 1.3 15.63 15.25-4.27-1.43-1.25 2.18-3.58-.24-1.04 3.8-2.45.48.46 4.45Z" fill="#fff"/>
  <path d="m33.37 37.07-6.66-3.49h-.03a2.4 2.4 0 0 1-.94-.8 2.69 2.69 0 0 1-.16-2.6 4.11 4.11 0 0 1 1.47-1.77 4.2 4.2 0 0 1 2-.75 2.72 2.72 0 0 1 2.56 1.05c.2.3.33.62.38.97l.02.14 1.36 7.25Z" fill="#000"/>
  <path d="m26.68 33.57-7.11-3.25a5.13 5.13 0 0 1-2.35-2.14l-.44-4.22-.02-.22.09-.02.27-.05 2.1-.41 1.03-3.8.22.01 3.36.23 1.26-2.18 1.73.59 2.52.84a4.84 4.84 0 0 1 1.59 2.9l.05.4 1 7.43a2.36 2.36 0 0 0-1.22-1.72c-.34-.18-.7-.28-1.09-.3a3.82 3.82 0 0 0-2.7.8 4.11 4.11 0 0 0-1.4 1.72 2.69 2.69 0 0 0 .17 2.6c.24.34.56.62.94.8Z" fill="#6EDBFF"/>
  <path d="M32 29.68a2.37 2.37 0 0 0-.4-.97 1.95 1.95 0 0 0-1.93-1.05l-3.73-9.85s1.13.52.88.3l2.52.85a4.84 4.84 0 0 1 1.59 2.9l.05.4 1.01 7.42Z" fill="#fff"/>
  <path d="M11.4 2.4c.94.48 1.37.77 2.32 1.29M15.9 7.37 11.4 2.4l-3.16.95h0" stroke="#000" stroke-width=".5" stroke-linecap="round" stroke-linejoin="round"/>
  <path d="m16.76 23.74.02.22.44 4.23a.1.1 0 0 1-.02-.03l-.09-.16v-.02L6.6 8.16" fill="#fff"/>
  <path d="m16.76 23.74.02.22.44 4.23a.1.1 0 0 1-.02-.03l-.09-.16v-.02L6.6 8.16M13.72 3.7c.53.5 15.1 14.74 15.62 15.25M6.6 8.16l-.02-.52-.1-1.96M30.93 21.86a5.02 5.02 0 0 0-1.58-2.9M17.22 28.19l.25.4a5.13 5.13 0 0 0 2.1 1.73M32 29.68l.01.14 1.36 7.25-6.66-3.49h-.03a2.4 2.4 0 0 1-.94-.8 2.69 2.69 0 0 1-.16-2.6 4.11 4.11 0 0 1 1.47-1.77 4.2 4.2 0 0 1 2-.75 2.72 2.72 0 0 1 2.56 1.05c.2.3.33.62.38.97ZM33.37 37.07l-13.8-6.75M33.37 37.07 31 22.27l-.06-.41M20.25 19.46l3.58.24 1.25-2.18M17.22 28.19v0M15.9 7.37l9.18 10.15v0h.01l4.25 1.43h0M6.49 5.67h0l1.74-2.31M6.49 5.68h0v-.01M17.38 15.61l2.73 3.67.14.18M8.23 3.36l8.27 11.08" stroke="#000" stroke-width=".5" stroke-linecap="round" stroke-linejoin="round"/>
  <path d="m31.64 28.5 1.73 8.57-3.7-9.41 1.97.84Z" fill="#6EDBFF"/>
  <path d="m33.37 37.07-6.66-3.49h-.03a2.4 2.4 0 0 1-.94-.8 2.69 2.69 0 0 1-.16-2.6 4.11 4.11 0 0 1 1.47-1.77 4.2 4.2 0 0 1 2-.75 2.72 2.72 0 0 1 2.67 1.24c.3.54.51 1.13.6 1.74l1.05 6.43ZM8.54 9.29l5.27 9.27M6.49 5.67l1.42 2.5M16.76 23.74l2.45-.48 1.04-3.8" stroke="#000" stroke-width=".5" stroke-linecap="round" stroke-linejoin="round"/>
</svg>
